!!!COM: Corelli, Arcangelo
!!!OTL: Sonate a tre [in D]
!!!XEN: Trio Sonata Opus 1, No. 12
!!!OPS: Opus 1
!!!ONM: No. 12
!!!OMV: Movement 1.
!!!YEC: Copyright 1994, Center for Computer Assisted Research in the Humanities
!!!YEM: Rights to all derivative electronic formats reserved.
!!!YEM: Refer to licensing agreement for further details.
!! For the following instrumentation: Violino I & II, Violone/Archlute,
!!    and Organo.
!! Grave.
**kern	**kern	**kern	**kern
*ICklav	*ICstr	*ICstr	*ICstr
*Iorgan	*Icello	*Ivioln	*Ivioln
*	*Iarchl	*	*
!Organo	!Violone	!Violin 2	!Violin 1
!	! or	!	!
!	!Archlute	!	!
*clefF4	*clefF4	*clefG2	*clefG2
*k[f#c#]	*k[f#c#]	*k[f#c#]	*k[f#c#]
*D:	*D:	*D:	*D:
*M4/4	*M4/4	*M4/4	*M4/4
*MM40	*MM40	*MM40	*MM40
=1-	=1-	=1-	=1-
8D\L	8D\L	4.ff#\	4.aa\
8E\	8E\	.	.
8F#\	8F#\	.	.
8G\J	8G\J	(16ee\LL	(16gg\LL
.	.	16dd\JJ)	16ff#\JJ)
8A\L	8A\L	8cc#\L	8ee\L
8G\	8G\	8dd\J	8ff#\J
8A\	8A\	8.dd\L	8.ee\L
8AA\J	8AA\J	.	.
.	.	16cc#\Jk	16ee\Jk
=2	=2	=2	=2
8d\L	8d\L	4dd\	4ff#\
8c#\	8c#\	.	.
8d\	8d\	4r	2bb\
8B\J	8B\J	.	.
8c#\L	8c#\L	2ee\	.
8B\	8B\	.	.
8c#\	8c#\	.	[4aa\
8F#\J	8F#\J	.	.
=3	=3	=3	=3
8B\L	8B\L	2dd\	4aa\]
8A\	8A\	.	.
8B\	8B\	.	2gg\
8E\J	8E\J	.	.
8A\L	8A\L	4cc#\	.
(16G\L	(16G\L	.	.
16A\JJ)	16A\JJ)	.	.
8B\L	8B\L	[4dd\	4ff#\
(16A\L	(16A\L	.	.
16B\JJ)	16B\JJ)	.	.
=4	=4	=4	=4
8E\L	8E\L	4dd\]	4gg#\
8E\	8E\	.	.
8F#\	8F#\	4cc#\	2aa\
8E\J	8E\J	.	.
8D/L	8D/L	2b\	.
8BB/	8BB/	.	.
8E/	8E/	.	4gg#\
8EE/J	8EE/J	.	.
=5	=5	=5	=5
4AA/	4AA/	4a/	4aa\
4r	4r	4r	4r
8AA/L	8AA/L	4.cc#\	4.ee\
8BB/	8BB/	.	.
8C#/	8C#/	.	.
8D/J	8D/J	(16b/LL	(16dd\LL
.	.	16a/JJ)	16cc#\JJ)
=6	=6	=6	=6
8E/L	8E/L	8g#/L	8b\L
8D/	8D/	8a/J	8cc#\J
8E/	8E/	8.a/L	8.b\L
8EE/J	8EE/J	.	.
.	.	16g#/Jk	16b\Jk
8A\L	8A\L	4a/	4cc#\
8G\	8G\	.	.
8A\	8A\	4r	[4ff#\
8D\J	8D\J	.	.
=7	=7	=7	=7
8G\L	8G\L	2b\	4ff#\]
8F#\	8F#\	.	.
8G\	8G\	.	2ee\
8C#\J	8C#\J	.	.
8F#\L	8F#\L	2a/	.
8E\	8E\	.	.
8F#\	8F#\	.	[4dd\
8BB\J	8BB\J	.	.
=8	=8	=8	=8
8E\L	8E\L	2g/	4dd\]
(16F#\L	(16F#\L	.	.
16G\JJ)	16G\JJ)	.	.
8A\L	8A\L	.	4cc#\
8AA\J	8AA\J	.	.
8D\L	8D\L	4f#/	4.dd\
8E\	8E\	.	.
8F#\	8F#\	8r	.
8D\J	8D\J	8dd\	8ff#\
=9	=9	=9	=9
8E\L	8E\L	4cc#\	4.ee\
8F#\	8F#\	.	.
8G\	8G\	8r	.
8E\J	8E\J	8b\	8dd\
4F#\	4F#\	4a#/	8cc#\L
.	.	.	8cc#\J
8r	8r	8r	[4ff#\
8F#\	8F#\	8a#/	.
=10	=10	=10	=10
4G\	4G\	4b\	8ff#\L]
.	.	.	8bb\J
8r	8r	8r	8.ee\L
8G\	8G\	8cc#\	.
.	.	.	16ee\Jk
4F#\	4F#\	4a#/	4ff#\
8D\L	8D\L	4r	[4ff#\
8d\J	8d\J	.	.
=11	=11	=11	=11
8B\L	8B\L	2gg\	4ff#\]
8G\	8G\	.	.
8c#\	8c#\	.	2ee\
8B\J	8B\J	.	.
8A#\L	8A#\L	2ff#\	.
8F#\	8F#\	.	.
8B\	8B\	.	[4dd\
8An\J	8An\J	.	.
=12	=12	=12	=12
8G\L	8G\L	2ee\	4dd\]
8E\	8E\	.	.
8A\	8A\	.	2cc#\
8G\J	8G\J	.	.
8F#\L	8F#\L	2dd\	.
8D\	8D\	.	.
8G\	8G\	.	[4b\
8F#\J	8F#\J	.	.
=13	=13	=13	=13
8E/L	8E/L	2cc#\	4b\]
8C#/	8C#/	.	.
8F#/	8F#/	.	4a#/
8FF#/J	8FF#/J	.	.
8BB/L	8BB/L	4.b\	4.b\
8C#/	8C#/	.	.
8D/	8D/	.	.
8BB/J	8BB/J	8dd\	8bb\
=14	=14	=14	=14
8C#\L	8C#\L	4ee\	4aa\
8D\	8D\	.	.
8E\	8E\	8r	8r
8C#\J	8C#\J	8ee\	8gg\
8D\L	8D\L	4a/	4ff#\
8E\	8E\	.	.
8F#\	8F#\	8r	8r
8D\J	8D\J	8aa\	8ff#\
=15	=15	=15	=15
8G\L	8G\L	4gg\	4ee\
8A\	8A\	.	.
8B\	8B\	8r	8r
8G\J	8G\J	8ff#\	8dd\
8A\L	8A\L	4ee\	4cc#\
8G\	8G\	.	.
8F#\	8F#\	8r	[4aa\
8D\J	8D\J	8a/	.
=16	=16	=16	=16
8GG/L	8GG/L	(8b\L	4aa\]
8AA/	8AA/	8cc#\)	.
8BB/	8BB/	(8dd\	2gg\
8GG/J	8GG/J	8ee\J)	.
8AA\L	8AA\L	(8cc#\L	.
8A\	8A\	8a\J)	.
8B\	8B\	[4dd\	4ff#\
8F#\J	8F#\J	.	.
=17	=17	=17	=17
8G\L	8G\L	4dd\]	2ee\
8E\	8E\	.	.
8A\	8A\	4cc#\	.
8AA\J	8AA\J	.	.
8D\L	8D\L	4dd\	4ff#\
8E\	8E\	.	.
8F#\	8F#\	[4aa\	8r
8D\J	8D\J	.	8a/
=18	=18	=18	=18
8GG/L	8GG/L	4aa\]	(8b\L
8AA/	8AA/	.	8cc#\)
8BB/	8BB/	2gg\	(8dd\
8GG/J	8GG/J	.	8ee\J)
8AA\L	8AA\L	.	(8cc#\L
8A\	8A\	.	8a\J)
8B\	8B\	4ff#\	[4dd\
8F#\J	8F#\J	.	.
=19	=19	=19	=19
8G\L	8G\L	2ee\	4dd\]
8E\	8E\	.	.
8A\	8A\	.	4cc#\
8AA\J	8AA\J	.	.
2D\	2D\	2dd\	2dd\
==	==	==	==
*-	*-	*-	*-
!!!CDT: 1653/2/17/-1713/1/8
!!!OCY: Italia
!!!ODE: Queen Christina Alexandra of Sweden
!!!ODT: 1681//
!!!OPC: Roma; Rome
!!!AGN: trio sonata
!!!AST: baroque, chamber
!!!AMT: simple quadruple
!!!YOR1: J. Joachim & F. Chrysander (eds.) Les Oeuvre de Arcangelo Corelli
!!!YOR2: London: Augener & Co. 1871
!!!YOY: 1871
!!!AIN: archl cello organ violn
!!!EEV: 1.1
!!!RDT: 1993 September 17
!!!YER: 1994 December 14
!!!EMD: 1996 July 9
!!!YEN: United States of America
!!!EFL: 1/4
!!!ENC: Frances Bennion & Steven Rasmussen
!!!EED: W.B. Hewlett
!!!VTS: 3601543278
